calendar-week-outline.svg

<svg  viewBox="0 0 24 24" fill="currentColor"><path  d="M5 3H6V1H8V3H16V1H18V3H19C20.11 3 21 3.89 21 5V19C21 20.1 20.11 21 19 21H5C3.9 21 3 20.11 3 19V5C3 3.89 3.9 3 5 3M5 19H19V9H5V19M5 7H19V5H5V7M17 11V13H7V11H17"/></svg>

<svg fill="currentColor" viewBox="0 0 24 24"><path d="M5 3h1V1h2v2h8V1h2v2h1c1.11 0 2 .89 2 2v14a2 2 0 0 1-2 2H5a2 2 0 0 1-2-2V5a2 2 0 0 1 2-2m0 16h14V9H5zM5 7h14V5H5zm12 4v2H7v-2z"/></svg>
